X: 05061
T: The Muckin' o' Geordie's Byre
R: jig
B: RSCDS 5-6
Z: 1997 by John Chambers <jc:trillian.mit.edu>
N: In Oswald's "Curious Scots Tunes" 1742
M: 6/8
L: 1/8
%--------------------
K: D
|: "D"A>BA AFA \
| d2e f2a \
| "A7"g2e "D"f2d \
| "G"efd Bcd \
| "D"A>BA AFA |
| d2e f2g \
| afd "A7"efe \
| "D"d6 \
:: "G"{ef}g2g "(A)"gag \
| "D"f2f "(Bm)"fgf |
| "Em"e2e "A7"efg \
| "D"fed "G"Bcd \
| "D"A>BA AFA \
| d2e f2g \
| afd "A7"efe \
| "D"d6 :|
%%center Book05/05061-Muckin_o_Geordies_Byre-10.abc

%%sep 1 1 500
%%sep 1 1 500

